svg/upload_2.svg

<svg xmlns="http://www.w3.org/2000/svg" viewBox="0 0 32 32" enable-background="new 0 0 32 32"><path d="M 16 4 C 11.881031 4 8.6410897 7.1306815 8.1875 11.125 C 6.3932503 11.4248 4.9405202 12.644661 4.34375 14.34375 C 1.883741 15.056388 0 17.249284 0 20 C 0 23.32381 2.6761905 26 6 26 L 26 26 C 29.32381 26 32 23.32381 32 20 C 32 18.239589 31.145477 16.664208 29.90625 15.5625 C 29.674011 12.048311 26.870723 9.244435 23.34375 9.0625 C 22.139865 6.1309484 19.377659 4 16 4 z M 16 6 C 18.7625 6 20.971089 7.7714244 21.75 10.28125 L 21.96875 11 L 22.6875 11 L 23 11 C 25.754545 11 28 13.245455 28 16 L 28 16.5 L 28.40625 16.8125 C 29.35025 17.5205 30 18.733333 30 20 C 30 22.27619 28.27619 24 26 24 L 6 24 C 3.7238095 24 2 22.27619 2 20 C 2 17.98 3.448849 16.412428 5.28125 16.09375 L 5.9375 15.96875 L 6.0625 15.3125 C 6.3621165 13.964226 7.5561404 13 9 13 L 10 13 L 10 12 C 10 8.6299145 12.629915 6 16 6 z M 16 11.59375 L 15.28125 12.28125 L 11.28125 16.28125 L 12.71875 17.71875 L 15 15.4375 L 15 22 L 17 22 L 17 15.4375 L 19.28125 17.71875 L 20.71875 16.28125 L 16.71875 12.28125 L 16 11.59375 z" color="#000" overflow="visible" enable-background="accumulate"/></svg>

<svg xmlns="http://www.w3.org/2000/svg" viewBox="0 0 32 32"><path d="M16 4c-4.12 0-7.36 3.13-7.813 7.125-1.794.3-3.246 1.52-3.843 3.22C1.884 15.054 0 17.248 0 20c0 3.324 2.676 6 6 6h20c3.324 0 6-2.676 6-6 0-1.76-.855-3.336-2.094-4.438-.232-3.514-3.035-6.318-6.562-6.5C22.14 6.133 19.378 4 16 4zm0 2c2.762 0 4.97 1.77 5.75 4.28l.22.72H23c2.755 0 5 2.245 5 5v.5l.406.313C29.35 17.52 30 18.733 30 20c0 2.276-1.724 4-4 4H6c-2.276 0-4-1.724-4-4 0-2.02 1.45-3.588 3.28-3.906l.657-.125.125-.658C6.362 13.964 7.556 13 9 13h1v-1c0-3.37 2.63-6 6-6zm0 5.594l-.72.687-4 4 1.44 1.44L15 15.437V22h2v-6.563l2.28 2.282 1.44-1.44-4-4-.72-.686z"/></svg>
